X:161
T:Cumberland Square Eight
T:My Love She's But a Lassie Yet
%%subtitlefont Times-Roman 28
S:Colin Hume's website,  colinhume.com  - chords can also be printed below the stave.
Q:1/2=120
M:2/2
L:1/8
N:For three times through the dance play first tune four times and second tune once.
K:D
P:A
|: dc | "D"d2D2 F2A2 | "D"d2D2 D2dc | "D"d2D2 F2A2 | "Em"e2E2 "A7"E2dc |\
| "D"d2D2 F2A2 | "G"B2g2 "Em"f2e2 | "A7"dcBA Bcde | "D"f2d2 d2 :|
P:B
|: fg | "D"a3f "A7"g3e | "D"f2d2 d2fg | "D"a2f2 "G"g2a2 | "Em"b2e2 "A7"e2fg |\
| "D"a3f "A7"g3e | "D"f3d "A7"e3c | "D"dcBA "A7"Bcde | "D"f2d2 d2 :|
N:Replace by blank line and X field
T:Atholl Highlanders
M:6/8
Q:3/8=120
K:A
P:A
|: c/d/ | "A"e3 ecA | "A"ecA "E7"Bcd | "A"e3 ecA | "Bm"Bcd "E7"cBA |\
"A"e3 ecA | "A"ecA "E7"Bcd | "A"eae "D"fed | "E7"cdB "A"A2 :|
P:B
|:e | "A"Ace Ace | "D"Adf Adf | "A"Ace Ace | "Bm"Bcd "E7"c2B |\
"A"Ace Ace | "D"Adf Adf | "A"eae "D"fed | "E7"cdB "A"A2 :|
P:C
|:e | "A"a2e edc | "A"a2e edc | "A"a2e edc | "D"Bcd "E7"cBA |
"A"a2e edc | "A"a2e edc | "A"a2e "D"fed | "E7"cdB "A"A2 :|
P:D
|: A/B/ | "A"cAc cAc | "D"dBd dBd | "A"cAc cAc | "G"B=GB BGB |
"A"cAc cAc | "Bm"dBd dBd | "A"eae "D"fed | "E7"cdB "A"A2 :|

